X:1
T:Hodderson, 77.87 D
T:Hodderson, 77.87 D
T:Ann Sheppard Mounsey Bartholomew, 1880
T:Public Domain Courtesy of the Cyber Hymnal™
C:Ann Sheppard Mounsey Bartholomew, 1880
Z:Public Domain
Z:Courtesy of the Cyber Hymnal™
%%score ( 1 2 ) ( 3 4 )
L:1/8
Q:1/4=107
M:4/4
K:D
V:1 treble 
V:2 treble 
V:3 bass 
V:4 bass 
V:1
 [DA]2 [DB]>[DA] [Dd]2 [Dc]2 | [DB]4 [DA]2 [FB]2 | [EG]3 [^DF] E2 [=CF]2 | [B,^D]4 [B,E]2 [B,E]2 | %4
 [=CF]2 [B,^D]2 [B,E]2 [EG]2 | [EA]2 [DF]2 [DG]2 [DB]2 | [FA]3 [EG] [DF]2 [CE]2 | %7
 [CE]4 D2 (C[B,D]) | [A,E]2 [CA]2 [Ec]2 [Ee]2 | d4 [Ac]2 [Fc]2 | [FB]2 [Fd]2 [Fc]2 [^E^G]2 | %11
 [^EB]4 [FA]2 [GA]2 | [Fd]3 A [GB]2 [AB]2 | [^Ge]3 B [Ac]2 [Ac]2 | [Ad]2 [Af]2 [Ge]2 [GB]2 | %15
 [Gc]4 [Fd]4 |] %16
V:2
 x8 | x8 | x4 E2 x2 | x8 | x8 | x8 | x8 | x4 D2 C x | x8 | (F2 ^G2) x4 | x8 | x8 | x3 A x4 | %13
 x3 B x4 | x8 | x8 |] %16
V:3
 [D,F,]2 [D,G,]>[D,F,] [B,,F,]2 [A,,F,]2 | G,4 [D,F,]2 [^D,B,]2 | %2
 [E,B,]3 [B,,B,] [G,,B,]2 [A,,A,]2 | [B,,F,]4 [E,G,]2 [G,,G,]2 | %4
 [A,,F,]2 [B,,F,]2 [E,G,]2 [E,B,]2 | [=C,A,]2 [D,A,]2 [G,B,]2 [G,B,]2 | %6
 [F,D]3 [G,B,] A,2 [A,,G,]2 | [D,G,]4 [D,F,]2 (A,B,) | [A,C]2 [E,A,]2 [C,A,]2 [C,C]2 | %9
 [B,,D]4 [A,,E]2 [^A,,E]2 | [B,,D]2 [B,,B,]2 (A,B,) [C,C]2 | [F,C]4 [F,C]2 [E,C]2 | %12
 [D,D]3 [F,D] [G,D]2 [F,^D]2 | [E,E]3 [^G,E] [A,E]2 [=G,E]2 | [F,D]2 [D,D]2 [G,B,]2 [E,E]2 | %15
 [A,E]4 [D,D]4 |] %16
V:4
 x8 | (G,,2 B,,2) x4 | x8 | x8 | x8 | x8 | x4 A,2 x2 | x6 A,2 | x8 | x8 | x4 C,2 x2 | x8 | x8 | %13
 x8 | x8 | x8 |] %16

